src/actions/16/code-function.svg

<svg viewBox="0 0 16 16" xmlns="http://www.w3.org/2000/svg">
 <defs>
  <style type="text/css">.ColorScheme-Text {
        color:#2e3440;
      }</style>
 </defs>
 <path class="ColorScheme-Text" d="m4 4v1h4v-1h-4zm5 0v7h5v-7h-5zm-7 2v1h4v-1h-4zm1 2v1h3v-1h-3zm2 2v1h3v-1h-3z" fill="currentColor"/>
</svg>

<svg xmlns="http://www.w3.org/2000/svg" viewBox="0 0 16 16">
  <defs id="defs3051">
    <style type="text/css" id="current-color-scheme">
      .ColorScheme-Text {
        color:#2e3440;
      }
      </style>
  </defs>
 <path style="fill:currentColor;fill-opacity:1;stroke:none" 
     d="M 4 4 L 4 5 L 8 5 L 8 4 L 4 4 z M 9 4 L 9 11 L 14 11 L 14 4 L 9 4 z M 2 6 L 2 7 L 6 7 L 6 6 L 2 6 z M 3 8 L 3 9 L 6 9 L 6 8 L 3 8 z M 5 10 L 5 11 L 8 11 L 8 10 L 5 10 z "
     class="ColorScheme-Text"
     />
</svg>
